!!!OTL: In huius regis glorie
**kern
*staff1
=1-
*clefC1
*k[]
*met(c|)
*M2/2
2cc\
1a
2a\
=2
1b
2g\
1cc
2a\
=3
1dd
2cc\
2cc\
=4
1b
0cc;
=5
1cc
2cc\
1b
2g\
1a
2a\
=6
!!linebreak:original
1g
2e/
1f
2f/
=7
1e
2c/
1g
2g\
=8
1c
2c/
1e
2e/
2e/
2c/
=9
2B/
0c
==
*-
!!title: @{OTL}, @{GTL}, ed. @{ENC}
!!!pag:
!!!GTL: Hymnbook D
!!!EFL: 
!!!YEM: Creative Commons CC/BY/NC/SA 4.0
!!!ENC: Marcin Konik
!!!END: 2015-0m-dd
!!!EED: Marcin Konik
!!!EEV: 
!!!ONB: Encoded in vim by Marcin Konik
!!!CharacterEncoding: utf-8
!!!RDF**kern: l=long note in original notation
!!!RDF**kern: i=editorial accidental
!!muse2ps: z14jc180F
!!!COM: Anonim
!!!CDT: [?]
!!!TXO: Polish
!!!ODT: 
!!!GTL: Hymnbook D
!!!ARL: Opactwo św. Wojciecha, Staniątki 
!!!voices:	1
